X:200
T:Nearer, My God, To Thee
%%stretchlast false
M:6/4
L:1/4
K:Eb clef=C1
"^I"[EBg]3 "^V7"[B,DAf]2 "^vi"[CEGe] | "^IV"[A,Ace]2 [A,EAc] [A,EAc]3 | "^I"[E,GB]3 "^I¹"[G,EBe]2 "^I"[E,EBg] | "^V"[B,DBf]3 [B,DBf]2 "^i"[EB] | "^I"[EBg]2 "^I²"[B,EAg] "^V7"[B,DAf] "^vii"[CDGf] "^IV"[A,Ece] | [A,Ace] "^i¹"[A,Ae] "^IV"[A,EAc] [A,EAc]2 "^vi7³"[B,EGc] | "^I²"[B,EGB] "^i"[B,EB] "^I²"[B,GBe] "^V"[B,FBd] [B,FBd] "^i"[E,ABf] | "^I"[E,GBe]2 [E,GBe] [E,GBe] [EGe]2 | [EGeb] [EGeb]2 "^IV²"[EAec'] [EAec'] "^I"[EGeb] | [EGeb] [EGeb] [Eeg] [EGeb] [EGeb]2 | [EGeb] [A,Geb]2 "^IV²"[EAec'] "^♯iii°"[DABc'] "^iii²"[DGBb] | "^i"[EFBb] "^v"[B,FBb] "^I²"[B,EBg] "^V"[B,DBf] "^V¹"[DEBf]2 | "^I"[EBg] "^I²"[B,EAg]2 "^vii"[CDGf] "^viiø7²"[A,Dcf] "^IV"[A,Ece] | "^IV¹"[CAe] "^i¹"[A,Ae] "^IV"[A,EAc] [A,EAc] "^vi7³"[B,EGc]2 | "^i"[B,EB] [B,EB] "^I²"[B,GBe] "^V"[B,FBd] [E,FBd] [E,ABf] | "^I"[E,GBe] [E,GBe]2 "^I¹"[Ge]2 |]
